X:1
N: The Duchess of Atholl's Slipper
N: 8x32S 2C (RSCDS Bk 9)
P: The Duchess of Atholl's Slipper
C: Neil Gow, 1788
C: Arranged by Terry Traub, Jan. 30, 2002
M: 4/4
L: 1/16
K: G
|: G | "G" D>GB>G d>BG>B | "G" D>GB>G "Am" E<A"D"A>B | "G" D>GB>G d>G B<g | "D"d>cB>A "G"G<G G2 :|
g | "G" d<g g2 d>gb>g | "G" a>gb>g "Am" e<a "D" a2 | "G" d<g g2 d>gb>g | "D" a>gb>g "G"d<g g2 |
"G" d<g g2 d>gb>g | "G" a>gb>g "Am" e<a "D" a2 | "G" gcB>A "G" G<G G ||
